X: 16
M: C|
L: 1/4
P: AA BB ad.lib.
Q: 1/2=88 "lyrical"
K: G
V: 1
"A"|:\
"B"|: A |\
d2 ef | B2 ^cd | e2 d^c | d3 ", "A |
V: 2
|: GD B,D | EG FE | DF GA | FE DE | FD EF |
V: 3 clef=bass middle=d
|: "G"g4 | "C"c2 "D"d2 | "G"B2 G2 | "D"dA FA | "D"dc BA |
"G"Gd gf | "A7"e"D"d "A"A2 |1 "D"d3 z :|2 "D"d3 |] |: z | "D"d2- d2 |
"G"G4 | "E"E4 | "A"A4 | "D"F2 ED | "G"G2- GF |
"Em"E2 "A"A2 | "D"D4 | "D"d4 | "Am"c4 | "Am"c2 "A"^c2 |
"D7"d4 | "G"GG/A/ BA | "G"GG/A/ BA | "G"G"D"D "G"G "D"D |1 "G"G3 :|2 "G"G4 |]


